X:263(C)
T:Rory O More
O:No 263(C) Page 132 - 133 William Clarke of Feltwell
M:6/8
L:1/8
N:In m.s., key signature given as G, bar 5 the E has been changed from a quaver to a grace note.
N:Pause signs above A in bar 6, 2nd G in bar 12, A in bar 22.
K:C
a|gcc dcc|gcc cc'a|gfe edc|Bddd2g|gcc {e}dcc|gcc agf|efg gab|c'cc cz c'|c'ba aee|fed cz B|ABc cde|eag gbb|c'ba aee|fed ccB|ABc cde|eagg2{b}a|gcc dcc|gcc cz a|gcc edc|Bdd def|gcc dcc|gcc age|efg ac'b|c'ccc2|]

